X:1
T:Title
%%score { ( 1 3 ) | 2 }
L:1/8
M:6/8
K:Ab
V:1 treble nm="Grand Piano"
V:3 treble 
V:2 bass 
V:1
 z3 z2[Q:1/4=81] [A,C]/[B,D]/ | [CE][_C=D][=CE] [Ec][_DB][CA] | A G2- G2 A | B=AB EGd | %4
[M:5/8] [Ec]-[Ec]- [Ec]3 |[M:1/8] [EB] |[M:3/4] [FA][=EG] [FA][Fd] [FA][EB] | %7
 [Ec][CA]- [CA]3 [EG] | [=DF][DG] [DA][DB] [Dc]>[DA] | [DB]6 | [Ec][=D_c] [E=c][CE] [CF][EA] | G6 | %12
 dc dE Gd |[M:5/8] c-c- c3 |[M:1/8] d |[M:3/4] ec B A2 c |[M:13/16] [Fe][Fd][FB][DF]-<[DF][Fd]3/2 | %17
[M:3/4] [Ec]2 [CEA][DGB] [EGc]>[DGB] |[M:5/8] [A,CEA]-[A,CEA]- [A,CEA]3 |] %19
V:2
 z3 z2 [A,,E,]/[A,,E,]/ | [A,,A,][A,,A,][A,,A,] [A,,A,][A,,A,][A,,A,] | %2
 [E,B,D] [E,B,D]2- [E,B,D]2 [E,A,C] | [E,G,D][E,_G,C][E,=G,D] [E,G,D][E,B,E][E,G,E] | %4
[M:5/8] [A,,A,]-[A,,A,]- [A,,A,]3 |[M:1/8] [C,A,] |[M:3/4] [D,A,][D,B,] [D,A,][D,A,] [D,D][D,A,] | %7
 [A,,A,][A,,A,]- [A,,A,]3 [A,,A,] | [B,,A,][B,,G,] [B,,F,][B,,A,] [B,,A,]>[B,,B,] | [E,G,]6 | %10
 [A,,A,][A,,A,] [A,,A,][A,,A,] [A,,A,][C,A,] | [E,B,D][E,B,] [E,B,] .[E,B,]3 | %12
 [E,B,E][E,=A,E] [E,B,E][E,G,] [E,B,E][E,G,E] |[M:5/8] [A,E][E,A,][C,A,] [A,,A,]2 | %14
[M:1/8][K:treble] [A,B,E] |[M:3/4] [A,CE][A,E] [A,DE] [A,CE]2 [A,_G] | %16
[M:13/16][K:bass] [D,A,][D,A,][D,A,][D,A,]-<[D,A,][B,,A,]3/2 |[M:3/4] [E,A,]2 E,E, E,>E, | %18
[M:5/8] A,,-A,,- A,,3 |] %19
V:3
 x6 | x6 | x6 | x6 |[M:5/8] x5 |[M:1/8] x |[M:3/4] x6 | x6 | x6 | x6 | x6 | z D D .D3 | x6 | %13
[M:5/8] z EE E2 |[M:1/8] x |[M:3/4] x6 |[M:13/16] x13/2 |[M:3/4] x6 |[M:5/8] x5 |] %19

